**kern	**kern
*staff2	*staff1
=1-	=1-
*clefF4	*clefF4
*k[f#c#g#d#a#]	*k[f#c#g#d#a#]
*g#:	*g#:
*M4/4	*M4/4
16G#\LL	2r
16B\	.
16d#\	.
16g#\JJ	.
16G#\LL	.
16B\	.
16d#\	.
16g#\JJ	.
16G#\LL	8GGG#/L
16B\	.
16d#\	8GGG#/J
16g#\JJ	.
16G#\LL	4GGG#/
16B\	.
16d#\	.
16g#\JJ	.
*	*clefG2
=2	=2
16G#\LL	8gg#\L
16B\	.
16d#\	8gg#\J
16g#\JJ	.
16G#\LL	4gg#\
16B\	.
16d#\	.
16g#\JJ	.
16G#\LL	8r
16B\	.
16d#\	8bb\L
16g#\JJ	.
16G#\LL	8aa#\
16B\	.
16d#\	8gg#\J
16g#\JJ	.
=3	=3
!!linebreak:original
16G#\LL	4.ccc#\
16c#\	.
16e\	.
16a#\JJ	.
16G#\LL	.
16c#\	.
16e\	8eee\
16a#\JJ	.
16A#\LL	8ddd#\L
16c#\	.
16e\	8ccc#\
16a#\JJ	.
16A#\LL	8bb\
16c#\	.
16e\	8aa#\J
16a#\JJ	.
*clefG2	*
=4	=4
16A#/LL	8bb\L
16d#/	.
16f#/	8bb\J
16b/JJ	.
16A#/LL	4bb\
16d#/	.
16f#/	.
16b/JJ	.
16B/LL	8BB/L
16d#/	.
16f#/	8BB/J
16b/JJ	.
16B/LL	4BB/
16d#/	.
16f#/	.
16b/JJ	.
=5	=5
!!pagebreak:original
16B/LL	8r
16d#/	.
16f#/	16dd#\LL
16b/JJ	16ee\JJ
16B/LL	16ff#\LL
16d#/	16gg#\
16f#/	16aa#\
16b/JJ	16bb\JJ
16B/LL	8cccn\L
16e/	.
16gn/	16gggn\L
16ccn/JJ	16fffn\J
16B/LL	8eee-\
16e/	.
16g/	8dddn\J
16cc/JJ	.
=6	=6
16c#/LL	8ccc#\L
16e/	.
16g#/	8gg#\J
16cc#/JJ	.
16c#/LL	[4aaan\
16e/	.
16g#/	.
16cc#/JJ	.
16c#/LL	16aaa\LL]
16e/	16ggg#\
16g#/	16fff#\
16cc#/JJ	16eee\JJ
16c#/LL	16dddn\LL
16e/	16aaa\
16g#/	16bb\
16cc#/JJ	16aaa\JJ
=7	=7
!!linebreak:original
16dn/LL	8bb\L
16gn/	.
16b/	8bb\J
16ddn/JJ	.
16d/LL	4bb\
16g/	.
16b/	.
16dd#/JJ	.
4r	16e/LL
.	16gn/
.	16b/
.	16ee/JJ
*^	*
*clefF4	*clefF4	*
*v	*v	*
8r	16g\LL
.	16b\
8c#/	16ee\
.	16ggn\JJ
=8	=8
16F#/LL	4.bb-\
16An/	.
16c#/	.
16f#/JJ	.
16F#/LL	.
16A/	.
16c#/	8aan\
16f#/JJ	.
16F#/LL	8ggn\L
16A/	.
16c#/	8ff#\
16f#/JJ	.
16F#/LL	8ee\
16A/	.
16c#/	8ddn\J
16f#/JJ	.
=9	=9
!!linebreak:original
16F#/LL	8cc#\L
16B-/	.
16dn/	8cc#\J
16gn/JJ	.
16F#/LL	4cc#\
16B-/	.
16d#/	.
16g/JJ	.
16F#/LL	8r
16B-/	.
16d#/	16bb-\LL
16g/JJ	16aan\J
16F#/LL	8ggn\
16B-/	.
16d#/	8ff#\J
16g/JJ	.
=10	=10
16G#\LL	[4ffn\
16B\	.
16dn\	.
16fn\J	.
8g#\J	16ff\LL]
.	16ee\
8r	16ff\
.	16bb\JJ
8b-\L 8ccn\	16ff\LL
.	16ee\
8b-\J 8cc\	16ff\
.	16dddn\JJ
4b-\ 4cc\	16ff\LL
.	16ee\
.	16ff\
.	16cccn\JJ
=11	=11
!!pagebreak:original
16G#\LL	[4ffn\
16B\	.
16dn\	.
16fn\J	.
8g#\J	16ff\LL]
.	16ee\
8r	16ff\
.	16bb\JJ
8b-\L 8ccn\	16ff\LL
.	16ee\
8b-\J 8cc\	16ff\
.	16dddn\JJ
4b-\ 4cc\	16ff\LL
.	16ee\
.	16ff\
.	16cccn\JJ
*clefG2	*
=12	=12
16An/LL	4fffn\
16cn/	.
16fn/	.
16an/JJ	.
16A/LL	8cccn\
16c/	.
16f/	8r
16a/JJ	.
16A/LL	8r
16c/	.
16f/	8aan\L
16a/JJ	.
16A/LL	8ggn\
16c/	.
16f/	8ffn\J
16a/JJ	.
=13	=13
!!linebreak:original
16An/LL	4.bb-\
16dn/	.
16fn/	.
16b-/JJ	.
16A/LL	.
16d/	.
16f/	8dddn\
16b-/JJ	.
16A/LL	8cccn\L
16d/	.
16f/	8bbn\
16b-/JJ	.
16A/LL	8aan\
16d/	.
16f/	8ggn\J
16b-/JJ	.
=14	=14
16A#/LL	8ff#\L
16c#/	.
16f#/	8ff#\J
16a#/JJ	.
16A#/LL	4ff#\
16c#/	.
16f#/	.
16a#/JJ	.
*	*clefF4
16A#/LL	8FF#/L
16c#/	.
16f#/	8FF#/J
16a#/JJ	.
16A#/LL	[4FF#/
16c#/	.
16f#/	.
16a#/JJ	.
=15	=15
!!linebreak:original
16A#/LL	8FF#/L]
16c#/	.
16f#/	8GGn/
16a#/JJ	.
16A#/LL	8FF#/
16c#/	.
16f#/	8EE/J
16a#/JJ	.
16A#/LL	4DDn/
16c#/	.
16f#/	.
16a#/JJ	.
16A#/LL	4CC#/
16c#/	.
16f#/	.
16a#/JJ	.
=16	=16
16B/LL	4BBB/
16dn/	.
16f#/	.
16b/JJ	.
16B/LL	4r
16d/	.
16f#/	.
16b/JJ	.
*	*clefG2
16B/LL	8bb\L
16d/	.
16f#/	8bb\J
16b/JJ	.
16B/LL	4bb\
16d/	.
16f#/	.
16b/JJ	.
=17	=17
!!pagebreak:original
*M2/4	*M2/4
16B/LL	8r
16dn/	.
16f#/	8dddn\
16b/JJ	.
16B/LL	8ccc#\L
16d/	.
16f#/	8bb\J
16b/JJ	.
=18	=18
*M4/4	*M4/4
16An/LL	4.fff#\
16dn/	.
16gn/	.
16cc#/JJ	.
16A/LL	.
16d/	.
16g/	8eee\
16cc#/JJ	.
16A/LL	8dddn\L
16d/	.
16g/	8ddd\
16cc#/JJ	.
16A/LL	8ccc#\
16d/	.
16g/	8ccc#\J
16cc#/JJ	.
=19	=19
!!linebreak:original
16B/LL	8bb\L
16dn/	.
16fn/	8bb\J
16b/JJ	.
16B/LL	4bb\
16d/	.
16f/	.
16b/JJ	.
*	*clefF4
16B/LL	8Cn/L
16d/	.
16f/	8C/J
16b/JJ	.
16B/LL	[4C/
16d/	.
16f/	.
16b/JJ	.
=20	=20
16An/LL	1C]
16dn/	.
16fn/	.
16an/JJ	.
16A/LL	.
16d/	.
16f/	.
16a/JJ	.
16A/LL	.
16cn/	.
16f/	.
16a/JJ	.
16A/LL	.
16c/	.
16f/	.
16a/JJ	.
*	*clefGv2
=21	=21
!!linebreak:original
*	*clefGv2
16Gn/LL	8r
16cn/	.
16e-/	16cn\LL
16gn/JJ	16dn\J
16G/LL	8e-\
16c/	.
16e-/	8f#\J
16g/JJ	.
16G/LL	8g#\L
16c/	.
16e-/	8a#\
16g/JJ	.
16G/LL	8b\
16c/	.
16e-/	8ccn\J
16g/JJ	.
*clefF4	*
=22	=22
16F#\LL	4.cc#\
16B\	.
16d#\	.
16g#\JJ	.
16F#\LL	.
16B\	.
16d#\	8a#\
16g#\JJ	.
16Fn\LL	8r
16B\	.
16dn\	16cn\LL
16gn\JJ	16dn\J
16F\LL	8e-\
16B\	.
16d\	8fn\J
16g\JJ	.
=23	=23
!!pagebreak:original
16E\LL	4.g-\
16Gn\	.
16B\	.
16e\JJ	.
16G\LL	.
16B\	.
16e\	8fn\
16gn\JJ	.
16B\LL	2r
16e\	.
16g\	.
16b\JJ	.
16G\LL	.
16B\	.
16e\	.
16g\JJ	.
=24	=24
16E\LL	4.a-\
16Gn\	.
16B\	.
16e\JJ	.
16G\LL	.
16B\	.
16e\	8gn\
16gn\JJ	.
16B\LL	2r
16e\	.
16g\	.
16b\JJ	.
16G\LL	.
16B\	.
16e\	.
16g\JJ	.
=25	=25
!!linebreak:original
*M5/4	*M5/4
16D#\LL	4.a#\
16G#\	.
16B\	.
16d#\	.
16G#\	.
16B\	.
16d#\	8g#/L
16g#\JJ	.
4r	16BB/L
.	16D#/
.	16G#/
.	16B/JJ
8GG#/L	16D#\LL
.	16G#\
8GG#/J	16B\
.	16d#\
[4GG#/	16G#\
.	16B\
.	16d#\
.	16g#\JJ
=26	=26
!!linebreak:original
*M4/4	*M4/4
4GG#/_	16an\LL
.	16g#\
.	16d#\
.	16B\JJ
16GG#/LL]	16a#\LL
16BB/	16g#\
16D#/	16d#\
16G#/JJ	16B\JJ
16BB\LL	16b\LL
16D#\	16a#\
16G#\	16g#\
16B\JJ	16d#\JJ
16D#\LL	16ccn\LL
16G#\	16b\
16B\	16g#\
16d#\JJ	16d#\JJ
*clefG2	*
=27	=27
!!pagebreak:original
*clefG2	*M5/4
*M5/4	*
16G#/LL	16ddn\LL
16c#/	16ccn\
16e/	16gn\
16a#/	16e\
16G#/	16d#\
16c#/	16e\
16e/	16g\
16a#/	16e\
16G#/	16dd\
16c#/	16cc\
16e/	16g\
16a#/JJ	16e\JJ
16G#/LL	4r
16c#/	.
16e/	.
16a#/	.
16G#/	4dd#\
16c#/	.
16e/	.
16a#/JJ	.
=28	=28
*M4/4	*M4/4
16G#/LL	2ee\
16B/	.
16d#/	.
16g#/JJ	.
16B/LL	.
16d#/	.
16g#/	.
16b/JJ	.
8r	16D#/LL
.	16G#/
*clefF4	*
8r/L 8AAAA#/	16B/
.	16d#/JJ
8r/ 8BBBB/	16G#\LL
.	16B\
8CCCC#/J 8CCC#/	16d#\
.	16g#\JJ
=29	=29
!!linebreak:original
[1FFFF# [1DDD#	16Gn\LL
.	16B-\
.	16dn\
.	16gn\JJ
.	16An\LL
.	16d\
.	16e\
.	16an\JJ
.	16B-\LL
.	16d\
.	16g\
.	16b-\JJ
.	16cn\LL
.	16e\
.	16g\
.	16ccn\JJ
=30	=30
*M3/4	*M3/4
2.FFFF#/] 2.DDD#/]	16dn\LL
.	16f#\
.	16an\
.	16ddn\JJ
.	16e\LL
.	16g#\
.	16b\
.	16ee\JJ
.	16f#\LL
.	16a#\
.	16cc#\
.	16ff#\JJ
=31	=31
!!linebreak:original
*M4/4	*M4/4
[1CCCC# [1CCC#	16g#\LL
.	16cc#\
.	16ee#\
.	16gg#\JJ
.	16g#\LL
.	16cc#\
.	16ee#\
.	16gg#\JJ
.	16g#\LL
.	16cc#\
.	16ee#\
.	16gg#\JJ
.	16g#\LL
.	16cc#\
.	16ee#\
.	16gg#\JJ
=32	=32
1CCCC#] 1CCC#]	16g#\LL
.	16cc#\
.	16ee#\
.	16gg#\JJ
.	16g#\LL
.	16cc#\
.	16ee#\
.	16gg#\JJ
.	16g#\LL
.	16cc#\
.	16ee#\
.	16gg#\JJ
.	16g#\LL
.	16cc#\
.	16ee#\
.	16gg#\JJ
=33	=33
!!pagebreak:original
2.CC#\	4ccc#\
.	4r
.	2r
4BBB\ 4CC#\ 4DDn\	.
=34	=34
1AAA# 1CC# 1DD#	2r
.	[2d#\
=35	=35
2EEE\ 2GGG#\ 2AAA#\ 2CC#\	4d#\]
.	4e\
2CCC##\ 2GGG#\ 2AAA#\ 2CC#\	4e#\
.	4g#\
=36	=36
8DDD#\L	[1dd#
8GGG#\	.
8AAA#\	.
8BBB\J	.
*clefG2	*
8c#/L	.
8fn/	.
8gn/	.
8an/J	.
=37	=37
4.c#/ 4.e#/ 4.a#/	4.dd#\]
8r	8r
*clefF4	*
2DD#/ 2D#/	2Dn/ 2E/ 2Gn/ 2B/
=38	=38
!!pagebreak:original
[1GG# [1D#	[1D# [1G# [1B
=39	=39
!!pagebreak:original
4GGG#/ 4GG#/] 4D#/]	4BB/ 4D#/] 4G#/] 4B/]
4r	4r
2r	2r
==	==
*-	*-
